src/assets/images/arrow.svg

<svg fill="none" height="32" viewBox="0 0 18 32" width="18" xmlns="http://www.w3.org/2000/svg"><path clip-rule="evenodd" d="m.592716 14.5629 13.987984-13.98805c.8144-.766467 2.0599-.766467 2.8264 0 .7665.76647.7665 2.01198 0 2.82635l-12.59882 12.5988 12.59882 12.5988c.7665.7665.7665 2.0599 0 2.8264-.7665.7664-2.012.7664-2.8264 0l-13.987984-14.036c-.766466-.7664-.766466-2.012 0-2.8263z" fill="#ff5068" fill-rule="evenodd"/></svg>

<svg width="18" height="32" viewBox="0 0 18 32" fill="none" xmlns="http://www.w3.org/2000/svg">
<path fill-rule="evenodd" clip-rule="evenodd" d="M0.592716 14.5629L14.5807 0.57485C15.3951 -0.191617 16.6406 -0.191617 17.4071 0.57485C18.1736 1.34132 18.1736 2.58683 17.4071 3.4012L4.80828 16L17.4071 28.5988C18.1736 29.3653 18.1736 30.6587 17.4071 31.4252C16.6406 32.1916 15.3951 32.1916 14.5807 31.4252L0.592716 17.3892C-0.17375 16.6228 -0.17375 15.3772 0.592716 14.5629Z" fill="#FF5068"/>
</svg>
